assets/images/cooperations/eigenbaukombinat.svg

<svg height="1417.3228" width="1417.3228" xmlns="http://www.w3.org/2000/svg"><g stroke="#000" stroke-linecap="round" transform="translate(-44.025054 394.69658)"><g fill="none" stroke-width="8"><path d="m1149.3915 859.98247a674.91496 506.18622 54 1 0 -793.41011-1092.03534 674.91496 506.18622 54 1 0 793.41011 1092.03534z"/><path d="m752.68645-360.95016a506.18622 674.91496 0 1 0 0 1349.82991 506.18622 674.91496 0 1 0 0-1349.82991z"/><path d="m1394.5687 522.52499a674.91496 506.18622 18 1 0 -1283.76452-417.12039 674.91496 506.18622 18 1 0 1283.76452 417.12039z"/><path d="m1394.5687 105.4046a506.18622 674.91496 72 1 0 -1283.76452 417.12039 506.18622 674.91496 72 1 0 1283.76452-417.12039z"/><path d="m1149.3915-232.05287a506.18622 674.91496 36 1 0 -793.41011 1092.03534 506.18622 674.91496 36 1 0 793.41011-1092.03534z"/></g><path d="m634.57631 246.4733h371.20319v134.98299h-371.20319v134.983h371.20319v134.98299h-506.18618v-674.914964h506.18618v134.982994h-371.20319z" stroke-width="1.1"/></g></svg>

<svg
   xmlns:dc="http://purl.org/dc/elements/1.1/"
   xmlns:cc="http://creativecommons.org/ns#"
   xmlns:rdf="http://www.w3.org/1999/02/22-rdf-syntax-ns#"
   xmlns:svg="http://www.w3.org/2000/svg"
   xmlns="http://www.w3.org/2000/svg"
   xmlns:sodipodi="http://sodipodi.sourceforge.net/DTD/sodipodi-0.dtd"
   xmlns:inkscape="http://www.inkscape.org/namespaces/inkscape"
   width="1417.3228"
   height="1417.3228"
   id="svg2"
   version="1.1"
   inkscape:version="0.48.3.1 r9886"
   sodipodi:docname="logo.dxf">
  <metadata
     id="metadata37">
    <rdf:RDF>
      <cc:Work
         rdf:about="">
        <dc:format>image/svg+xml</dc:format>
        <dc:type
           rdf:resource="http://purl.org/dc/dcmitype/StillImage" />
        <dc:title></dc:title>
      </cc:Work>
    </rdf:RDF>
  </metadata>
  <sodipodi:namedview
     pagecolor="#ffffff"
     bordercolor="#666666"
     borderopacity="1"
     objecttolerance="10"
     gridtolerance="10"
     guidetolerance="10"
     inkscape:pageopacity="0"
     inkscape:pageshadow="2"
     inkscape:window-width="1280"
     inkscape:window-height="934"
     id="namedview35"
     showgrid="false"
     fit-margin-top="0"
     fit-margin-left="0"
     fit-margin-right="0"
     fit-margin-bottom="0"
     units="cm"
     inkscape:zoom="0.15857392"
     inkscape:cx="780.14389"
     inkscape:cy="816.23595"
     inkscape:window-x="0"
     inkscape:window-y="25"
     inkscape:window-maximized="1"
     inkscape:current-layer="g21" />
  <desc
     id="desc4">/home/robby/Desktop/logo.dxf - scale = 1.000000</desc>
  <defs
     id="defs6">
    <marker
       refY="0"
       refX="0"
       style="overflow:visible"
       id="DistanceX"
       orient="auto">
      <path
         style="stroke:#000000;stroke-width:0.5"
         d="M 3,-3 -3,3 M 0,-5 0,5"
         id="path9"
         inkscape:connector-curvature="0" />
    </marker>
    <pattern
       height="8"
       width="8"
       patternUnits="userSpaceOnUse"
       y="0"
       x="0"
       id="Hatch">
      <path
         linecap="square"
         stroke="#000000"
         stroke-width="0.25"
         d="M8 4 l-4,4"
         id="path12" />
      <path
         linecap="square"
         stroke="#000000"
         stroke-width="0.25"
         d="M6 2 l-4,4"
         id="path14" />
      <path
         linecap="square"
         stroke="#000000"
         stroke-width="0.25"
         d="M4 0 l-4,4"
         id="path16" />
    </pattern>
    <symbol
       id="*Model_Space" />
    <symbol
       id="*Paper_Space" />
    <symbol
       id="*Paper_Space0" />
  </defs>
  <g
     inkscape:label="0"
     inkscape:groupmode="layer"
     id="g21"
     transform="translate(-44.025054,394.69658)">
    <path
       style="fill:none;stroke:#000000;stroke-width:8;stroke-linecap:round;stroke-miterlimit:4;stroke-dasharray:none"
       d="M 1149.3915,859.98247 A 674.91496,506.18622 54 1 0 355.98139,-232.05287 674.91496,506.18622 54 1 0 1149.3915,859.98247 z"
       id="path23"
       inkscape:connector-curvature="0" />
    <path
       style="fill:none;stroke:#000000;stroke-width:8;stroke-linecap:round;stroke-miterlimit:4;stroke-dasharray:none"
       d="m 752.68645,-360.95016 a 506.18622,674.91496 0 1 0 0,1349.82991 506.18622,674.91496 0 1 0 0,-1349.82991 z"
       id="path25"
       inkscape:connector-curvature="0" />
    <path
       style="fill:none;stroke:#000000;stroke-width:8;stroke-linecap:round;stroke-miterlimit:4;stroke-dasharray:none"
       d="M 1394.5687,522.52499 A 674.91496,506.18622 18 1 0 110.80418,105.4046 674.91496,506.18622 18 1 0 1394.5687,522.52499 z"
       id="path27"
       inkscape:connector-curvature="0" />
    <path
       style="fill:none;stroke:#000000;stroke-width:8;stroke-linecap:round;stroke-miterlimit:4;stroke-dasharray:none"
       d="M 1394.5687,105.4046 A 506.18622,674.91496 72 1 0 110.80418,522.52499 506.18622,674.91496 72 1 0 1394.5687,105.4046 z"
       id="path29"
       inkscape:connector-curvature="0" />
    <path
       style="fill:none;stroke:#000000;stroke-width:8;stroke-linecap:round;stroke-miterlimit:4;stroke-dasharray:none"
       d="M 1149.3915,-232.05287 A 506.18622,674.91496 36 1 0 355.98139,859.98247 506.18622,674.91496 36 1 0 1149.3915,-232.05287 z"
       id="path31"
       inkscape:connector-curvature="0" />
    <path
       style="fill:#000000;fill-opacity:1;stroke:#000000;stroke-width:1.10000002;stroke-linecap:round"
       d="m 634.57631,246.4733 371.20319,0 0,134.98299 -371.20319,0 0,134.983 371.20319,0 0,134.98299 -506.18618,0 0,-674.914964 506.18618,0 0,134.982994 -371.20319,0 0,134.98299"
       id="path33"
       inkscape:connector-curvature="0" />
  </g>
</svg>
